src/app/client/src/assets/images/footer-flower-set.svg

<?xml version="1.0" encoding="UTF-8"?>
<svg width="383px" height="225px" viewBox="0 0 383 225" version="1.1" xmlns="http://www.w3.org/2000/svg" xmlns:xlink="http://www.w3.org/1999/xlink">
    <title>F78D99B1-B87C-4490-A331-562C704A50E6</title>
    <defs>
        <rect id="path-1" x="0" y="0" width="383" height="225"></rect>
        <polygon id="path-3" points="0.209823158 0.704664634 167.279781 0.704664634 167.279781 144.670861 0.209823158 144.670861"></polygon>
    </defs>
    <g id="Textbooks" stroke="none" stroke-width="1" fill="none" fill-rule="evenodd">
        <g id="1440-X-768" transform="translate(-937.000000, -976.000000)">
            <g id="Group-20-Copy" transform="translate(60.000000, 916.000000)">
                <g id="Group-20" transform="translate(877.000000, 60.000000)">
                    <mask id="mask-2" fill="white">
                        <use xlink:href="#path-1"></use>
                    </mask>
                    <g id="Mask"></g>
                    <g mask="url(#mask-2)">
                        <g transform="translate(1.000000, 0.000000)">
                            <path d="M92.835957,57 C126.637421,57 130.863223,206.645308 130.863223,206.645308 C130.863223,206.645308 142.693983,138.163704 164.665925,138.163704 C186.636629,138.163704 160.440123,214.253825 171.425475,212.563456 C182.412065,210.873088 174.805869,71.3724683 206.073585,108.571725 C237.340064,145.772221 222.974318,203.263332 256.77702,202.417529 C290.578484,201.572964 244.94626,175.362961 264.381978,149.998762 C283.818934,124.635801 332.831552,183.817281 337.057354,199.035553 C337.057354,199.035553 334.522368,117.026046 357.33848,117.026046 C380.15583,117.026046 381,234.54568 381,234.54568 L26.0759609,243 C26.0759609,243 -9.41631922,146.618024 2.41444083,117.026046 C14.2452009,87.4365438 53.9632829,148.308393 61.568241,171.13642 C61.568241,171.13642 59.033255,57 92.835957,57 Z M203.097798,142.695784 L202.986778,142.701768 C202.535697,142.754092 202.20259,143.134975 202.198575,143.577798 L202.204549,143.68964 L211.705811,225.676977 L211.727809,225.796161 C211.836471,226.22145 212.245267,226.511538 212.693214,226.459577 C213.144295,226.407253 213.477402,226.026369 213.481417,225.583546 L213.475443,225.471704 L203.974181,143.484368 L203.952183,143.365184 C203.861631,143.010777 203.562654,142.750259 203.206281,142.703334 L203.097798,142.695784 Z M22.6843844,142.498814 C22.4915942,142.103736 22.0336182,141.903038 21.6072531,142.0461 C21.1421274,142.202167 20.8907549,142.708237 21.0457968,143.176439 L21.0457968,143.176439 L48.2698343,225.388731 L48.3156156,225.501186 C48.5084058,225.896264 48.9663818,226.096962 49.3927469,225.9539 C49.8578726,225.797833 50.1092451,225.291763 49.9542032,224.823561 L49.9542032,224.823561 L22.7301657,142.611269 Z M361.067168,156.95462 L360.955319,156.959326 C360.503673,157.006518 360.166261,157.38359 360.157216,157.826339 L360.16192,157.938241 L360.483937,161.258319 L360.717026,163.844114 C360.901685,165.950506 361.084523,168.178606 361.260042,170.497705 L361.347166,171.664695 L361.480677,173.519416 C361.914606,179.690287 362.2361,185.738147 362.40402,191.432287 C362.838474,206.164511 362.197995,216.881421 360.224365,221.669947 C360.036828,222.124959 360.253484,222.645919 360.708279,222.833545 C361.163075,223.021171 361.683788,222.804412 361.871325,222.3494 C363.873343,217.491995 364.558698,207.457882 364.24294,193.601736 L364.226605,192.917211 L364.184732,191.379724 C364.014635,185.611766 363.687929,179.487068 363.246917,173.240275 L363.123839,171.533754 L363.036439,170.363074 C362.889711,168.424382 362.737883,166.549071 362.584137,164.754866 L362.491685,163.688217 L362.306012,161.616718 C362.257205,161.084067 362.210137,160.579698 362.165098,160.105225 L362.120746,159.640778 L361.933769,157.753102 C361.89053,157.338896 361.570233,157.020725 361.176283,156.963602 L361.067168,156.95462 Z M283.16163,169.162431 C282.875494,169.511137 282.898023,170.012052 283.196636,170.333665 L283.284897,170.416682 L284.420311,171.38661 L285.483636,172.32816 C286.346387,173.102597 287.275301,173.961122 288.257113,174.898096 C291.998719,178.468828 295.740621,182.437944 299.231126,186.69743 C308.504902,198.014282 314.323269,209.268553 315.028138,219.693376 C315.061341,220.184432 315.486147,220.555582 315.976969,220.522364 C316.467791,220.489146 316.838765,220.064138 316.805563,219.573082 C316.070443,208.700867 310.096017,197.144736 300.608789,185.567408 C297.068727,181.247446 293.27788,177.226413 289.486736,173.608405 C288.159356,172.341645 286.926254,171.215315 285.818761,170.24256 C285.508021,169.969626 285.224918,169.72444 284.971458,169.507846 L284.786953,169.350774 L284.415286,169.039106 C284.03506,168.726809 283.473779,168.782023 283.16163,169.162431 Z M95.6063395,93.9787246 C95.1522374,93.9787246 94.7775011,94.3186915 94.7225364,94.7581053 L94.7155962,94.8698913 L94.7155962,217.256785 L94.7237277,217.377711 C94.7827096,217.81269 95.1553909,218.147951 95.6063395,218.147951 C96.0604416,218.147951 96.4351779,217.807984 96.4901427,217.368571 L96.4970828,217.256785 L96.4970828,94.8698913 L96.4889514,94.7489653 C96.4299694,94.3139861 96.0572882,93.9787246 95.6063395,93.9787246 Z" id="Combined-Shape" fill-opacity="0.25" fill="#6236FF"></path>
                            <g id="Group-68" stroke-width="1" fill="none" transform="translate(39.000000, 79.000000)">
                                <path d="M246.894647,138.913945 C246.894647,138.913945 216.726762,140.187689 211.295659,132.934276 C205.86544,125.681752 222.315109,125.51032 222.315109,125.51032 C222.315109,125.51032 198.935219,121.522098 194.036802,110.223615 C189.138386,98.9260203 219.376059,100.150911 219.376059,100.150911 C219.376059,100.150911 199.340696,86.5092362 196.713484,72.879997 C194.086272,59.2507578 256.278935,98.4206086 256.278935,98.4206086 C256.278935,98.4206086 257.385827,75.9035848 262.714456,73.1553531 C262.714456,73.1553531 274.316945,66.6880375 269.841674,96.5481871 C269.841674,96.5481871 287.257775,78.6713578 292.696828,86.6931031 C298.134998,94.7148483 274.176485,108.813969 274.176485,108.813969 L246.894647,138.913945 Z" id="Fill-1" fill="#008840"></path>
                                <path d="M221.5,130.9 C221.5,130.9 238.224625,133.595289 244.5,111" id="Stroke-3" stroke="#4A00B2" stroke-width="1.5" stroke-linecap="round"></path>
                                <path d="M209.5,109.564445 C209.5,109.564445 242.431221,105.212282 264.5,118 C264.5,118 242.324587,96.065273 211.623792,83" id="Stroke-5" stroke="#4A00B2" stroke-width="1.5" stroke-linecap="round"></path>
                                <path d="M263.674375,84 C263.674375,84 255.819866,91.9594329 264.821229,119 C264.821229,119 268.905323,98.4540693 286.5,91.7805197" id="Stroke-7" stroke="#4A00B2" stroke-width="1.5" stroke-linecap="round"></path>
                                <path d="M246.626842,148 C246.626842,148 232.20996,115.192916 236.197139,113.047549 C240.1852,110.901299 250.307654,125.617935 250.307654,125.617935 C250.307654,125.617935 247.240458,107.517779 255.215698,103.077019 C263.190938,98.6362591 267.178117,120.098755 267.178117,120.098755 C267.178117,120.098755 282.208614,96.7874134 291.718336,103.077019 C301.227174,109.36839 280.982266,131.443343 280.982266,131.443343 C280.982266,131.443343 300.307191,120.404984 303.067138,128.990865 C305.827968,137.574981 294.479165,148 294.479165,148 L246.626842,148 Z" id="Fill-9" fill="#FBF272"></path>
                                <path d="M257.5,115.239208 C257.5,115.239208 264.376154,132.395551 264.376154,143 L269.027773,143 C269.027773,143 277.810545,117.125252 284.5,110" id="Stroke-11" stroke="#4A00B2" stroke-width="1.5" stroke-linecap="round"></path>
                                <path d="M295.5,135 C295.5,135 289.922898,135.244802 283.5,143" id="Stroke-13" stroke="#4A00B2" stroke-width="1.5" stroke-linecap="round"></path>
                                <path d="M22.8396043,154.670165 C22.8396043,154.670165 -0.893853566,132.350436 0.564563011,122.708695 C2.02297959,113.066954 14.5628918,125.630033 14.5628918,125.630033 C14.5628918,125.630033 -0.0186271628,104.593748 4.93893046,92.3223614 C9.89737036,80.0509744 31.7700899,104.302057 31.7700899,104.302057 C31.7700899,104.302057 27.1036862,78.5898635 35.5612672,66.3184765 C44.0188481,54.0470895 60.93401,131.474477 60.93401,131.474477 C60.93401,131.474477 79.0155523,115.404025 85.1403725,117.450287 C85.1403725,117.450287 98.8475473,121.541044 72.5995781,140.53195 C72.5995781,140.53195 99.4307375,140.53195 97.3891307,150.757959 C95.347524,160.984851 66.4756401,153.095913 66.4756401,153.095913 L22.8396043,154.670165 Z" id="Fill-15" fill="#008840"></path>
                                <path d="M9.5,129 C9.5,129 19.9486953,144.68 41.5,132.136" id="Stroke-17" stroke="#4A00B2" stroke-width="1.5" stroke-linecap="round"></path>
                                <path d="M16.5,105.518425 C16.5,105.518425 44.7980808,127.415862 51.4989937,154 C51.4989937,154 51.8610369,120.398594 38.8506091,87" id="Stroke-19" stroke="#4A00B2" stroke-width="1.5" stroke-linecap="round"></path>
                                <path d="M77.6070324,127 C77.6070324,127 65.6665794,127.072337 51.5,154 C51.5,154 70.345054,141.707941 88.5,149.879406" id="Stroke-21" stroke="#4A00B2" stroke-width="1.5" stroke-linecap="round"></path>
                                <path d="M50.06661,90 C50.06661,90 14.1373514,75.9060883 15.5400268,71.2140164 C16.9418223,66.5219445 35.8409819,70.05051 35.8409819,70.05051 C35.8409819,70.05051 19.7383734,58.5384324 22.429328,49.0410347 C25.1211624,39.543637 44.4831874,52.9261729 44.4831874,52.9261729 C44.4831874,52.9261729 38.1878673,23.5872303 50.2109254,21.1328069 C62.2331035,18.6783834 63.6181795,51.0574842 63.6181795,51.0574842 C63.6181795,51.0574842 69.929339,27.8324804 78.5609848,32.2945054 C87.1926306,36.7565304 86.486013,53.4145801 86.486013,53.4145801 L50.06661,90 Z" id="Fill-23" fill="#FBF272"></path>
                                <path d="M33.5,56.3512417 C33.5,56.3512417 51.8487404,64.0359621 59.9257657,72 L63.5,68.4814734 C63.5,68.4814734 50.540078,42.4089382 50.2530051,32" id="Stroke-25" stroke="#4A00B2" stroke-width="1.5" stroke-linecap="round"></path>
                                <path d="M77.5,51 C77.5,51 73.5043469,55.3033701 74.735591,66" id="Stroke-27" stroke="#4A00B2" stroke-width="1.5" stroke-linecap="round"></path>
                                <g id="Group-41" transform="translate(63.500000, 0.000000)">
                                    <mask id="mask-4" fill="white">
                                        <use xlink:href="#path-3"></use>
                                    </mask>
                                    <g id="Clip-40"></g>
                                    <path d="M79.5862863,144.636085 L3.25327579,133.889287 C1.50784421,133.643494 0.209823158,132.150171 0.209823158,130.387183 L0.209823158,4.33178659 C0.209823158,2.02328049 2.38498105,0.334560976 4.62203368,0.905719512 L79.2564758,19.9696829 C79.8108758,20.1111463 80.3918021,20.1164512 80.9488547,19.9838293 L161.782497,0.801390244 C163.991255,0.27797561 166.115128,1.94017073 166.136349,4.20977439 L167.279781,128.295293 C167.295549,130.05386 166.016981,131.557793 164.277739,131.823921 L80.6146232,144.629896 C80.2742021,144.682061 79.9275916,144.684713 79.5862863,144.636085" id="Fill-39" fill="#FFFFFF" mask="url(#mask-4)"></path>
                                </g>
                                <line x1="144.1765" y1="24" x2="143.8235" y2="140" id="Stroke-42" stroke="#D9CBC3" stroke-width="1.5"></line>
                                <path d="M127.780395,74.8025616 L77.1492574,61.7880347 C74.4128929,61.0843552 72.5,58.611728 72.5,55.7783986 L72.5,23.2070745 C72.5,19.1560427 76.3081147,16.1915488 80.2196051,17.1974384 L130.850743,30.2119653 C133.587107,30.9147586 135.5,33.388272 135.5,36.2207152 L135.5,68.7929255 C135.5,72.8439573 131.692769,75.8084512 127.780395,74.8025616 Z" id="Stroke-44" stroke="#D7CBC4" stroke-width="1.5" stroke-linecap="round"></path>
                                <path d="M71.5,78 C71.5,78 75.5700704,86.3488336 84.0244545,84.0751125 C92.4788386,81.7996129 95.8795888,84.0760017 103.148016,88.6634585 C110.41733,93.2500262 114.427925,87.5777278 120.415411,88.3291139 C126.40201,89.0796108 133.5,95 133.5,95" id="Stroke-46" stroke="#D7CBC4" stroke-width="1.5" stroke-linecap="round"></path>
                                <path d="M71.5,91 C71.5,91 75.5700704,99.3492703 84.0244545,97.074541 C92.4788386,94.7998117 95.8795888,97.0763195 103.148016,101.663127 C110.41733,106.250824 114.427925,100.578229 120.415411,101.328765 C126.40201,102.08019 133.5,108 133.5,108" id="Stroke-48" stroke="#D7CBC4" stroke-width="1.5" stroke-linecap="round"></path>
                                <path d="M214.5,18 C214.5,18 210.945061,26.0564503 203.40961,23.7898196 C195.875038,21.5231888 192.867892,23.7019122 186.439457,28.0903851 C180.011023,32.4797199 176.402448,26.9544842 171.084547,27.637059 C165.766646,28.3196337 159.5,34 159.5,34" id="Stroke-50" stroke="#D7CBC4" stroke-width="1.5" stroke-linecap="round"></path>
                                <path d="M214.5,29 C214.5,29 210.945061,37.0564503 203.40961,34.7898196 C195.875038,32.5231888 192.867892,34.7019122 186.439457,39.0903851 C180.011023,43.4797199 176.402448,37.9544842 171.084547,38.637059 C165.766646,39.3196337 159.5,45 159.5,45" id="Stroke-52" stroke="#D7CBC4" stroke-width="1.5" stroke-linecap="round"></path>
                                <path d="M214.5,40 C214.5,40 210.945061,48.0564503 203.40961,45.7898196 C195.875038,43.5231888 192.867892,45.7019122 186.439457,50.0903851 C180.011023,54.4797199 176.402448,48.9544842 171.084547,49.637059 C165.766646,50.3196337 159.5,56 159.5,56" id="Stroke-54" stroke="#D7CBC4" stroke-width="1.5" stroke-linecap="round"></path>
                                <path d="M214.5,50 C214.5,50 210.945061,58.0564503 203.40961,55.7898196 C195.875038,53.5231888 192.867892,55.7019122 186.439457,60.0903851 C180.011023,64.4797199 176.402448,58.9544842 171.084547,59.637059 C165.766646,60.3196337 159.5,66 159.5,66" id="Stroke-56" stroke="#D7CBC4" stroke-width="1.5" stroke-linecap="round"></path>
                                <path d="M214.5,62 C214.5,62 210.945061,70.0560164 203.40961,67.7895077 C195.875038,65.522999 192.867892,67.7016051 186.439457,72.0898416 C180.011023,76.47894 176.402448,70.9540019 171.084547,71.6365399 C165.766646,72.3199397 159.5,78 159.5,78" id="Stroke-58" stroke="#D7CBC4" stroke-width="1.5" stroke-linecap="round"></path>
                                <path d="M214.5,73 C214.5,73 210.945061,81.0564503 203.40961,78.7898196 C195.875038,76.5231888 192.867892,78.7019122 186.439457,83.0903851 C180.011023,87.4797199 176.402448,81.9544842 171.084547,82.637059 C165.766646,83.3196337 159.5,89 159.5,89" id="Stroke-60" stroke="#D7CBC4" stroke-width="1.5" stroke-linecap="round"></path>
                                <path d="M214.5,83 C214.5,83 210.945061,91.0564503 203.40961,88.7898196 C195.875038,86.5231888 192.867892,88.7019122 186.439457,93.0903851 C180.011023,97.4797199 176.402448,91.9544842 171.084547,92.637059 C165.766646,93.3196337 159.5,99 159.5,99" id="Stroke-62" stroke="#D7CBC4" stroke-width="1.5" stroke-linecap="round"></path>
                                <path d="M214.5,95 C214.5,95 210.945061,103.056016 203.40961,100.789508 C195.875038,98.522999 192.867892,100.701605 186.439457,105.089842 C180.011023,109.478078 176.402448,103.954002 171.084547,104.63654 C165.766646,105.319078 159.5,111 159.5,111" id="Stroke-64" stroke="#D7CBC4" stroke-width="1.5" stroke-linecap="round"></path>
                                <path d="M214.5,106 C214.5,106 210.945061,114.05645 203.40961,111.78982 C195.875038,109.523189 192.867892,111.701912 186.439457,116.090385 C180.011023,120.47972 176.402448,114.954484 171.084547,115.637059 C165.766646,116.320496 159.5,122 159.5,122" id="Stroke-66" stroke="#D7CBC4" stroke-width="1.5" stroke-linecap="round"></path>
                            </g>
                            <g id="Group-6" stroke-width="1" fill="none" transform="translate(83.000000, 0.000000)">
                                <path d="M191,0.25 C197.558381,0.25 203.495881,2.9083093 207.793786,7.20621395 C212.091691,11.5041186 214.75,17.4416186 214.75,24 L214.75,24 L214.75,268.75 L0.25,268.75 L0.25,24 C0.25,17.4416186 2.9083093,11.5041186 7.20621395,7.20621395 C11.5041186,2.9083093 17.4416186,0.25 24,0.25 L24,0.25 Z" id="Rectangle" stroke="#979797" stroke-width="0.5" fill="#000000"></path>
                                <path d="M190,3.58799999 C195.912761,3.58799999 201.265761,5.98461973 205.14057,9.8594296 C209.01538,13.7342395 211.412,19.0872395 211.412,25 L211.412,25 L211.412,268.412 L3.58799999,268.412 L3.58799999,25 C3.58799999,19.0872395 5.98461973,13.7342395 9.8594296,9.8594296 C13.7342395,5.98461973 19.0872395,3.58799999 25,3.58799999 L25,3.58799999 Z" id="Rectangle-Copy-6" stroke="#979797" stroke-width="1.17599999" fill="#000000" opacity="0.204729353"></path>
                                <path d="M23,29 L192,29 C199.179702,29 205,34.8202983 205,42 L205,269 L205,269 L10,269 L10,42 C10,34.8202983 15.8202983,29 23,29 Z" id="Rectangle-Copy-8" fill="#FFFFFF"></path>
                            </g>
                            <g id="Group-14" stroke-width="1" fill="none" transform="translate(123.000000, 9.000000)">
                                <circle id="Oval" stroke="#4A4A4A" fill="#000000" fill-rule="nonzero" cx="6.5" cy="6.5" r="6.5"></circle>
                                <circle id="Oval-Copy-4" stroke="#4A4A4A" fill="#000000" fill-rule="nonzero" cx="115.716216" cy="6.5" r="3.5"></circle>
                                <circle id="Oval-Copy-5" stroke="#4A4A4A" fill="#000000" fill-rule="nonzero" cx="130.556757" cy="6.5" r="3.5"></circle>
                                <rect id="Rectangle" stroke="#4A4A4A" fill-rule="nonzero" x="26.5459459" y="4.5" width="74.9486486" height="5" rx="2.5"></rect>
                            </g>
                        </g>
                    </g>
                </g>
            </g>
        </g>
    </g>
</svg>

<svg xmlns="http://www.w3.org/2000/svg" xmlns:xlink="http://www.w3.org/1999/xlink" width="383" height="225" xmlns:v="https://vecta.io/nano"><style><![CDATA[.B{stroke-width:1.5}.C{stroke-linecap:round}.D{stroke:#4a00b2}]]></style><defs><path id="A" d="M0 0h383v225H0z"/><path id="B" d="M.2.705h167.07V144.67H.2z"/></defs><g fill="none" fill-rule="evenodd"><mask id="C" fill="#fff"><use xlink:href="#A"/></mask><g mask="url(#C)"><g transform="translate(1)"><path d="M92.836 57c33.8 0 38.027 149.645 38.027 149.645s11.83-68.482 33.803-68.482-4.226 76.1 6.76 74.4 3.38-141.19 34.648-103.992 16.9 94.692 50.703 93.846-11.83-27.055 7.605-52.42 68.45 33.82 72.675 49.037c0 0-2.535-82 20.28-82S381 234.546 381 234.546L26.076 243S-9.416 146.618 2.414 117.026s51.55 31.282 59.154 54.1c0 0-2.535-114.136 31.268-114.136zm110.262 85.696l-.11.006a.89.89 0 0 0-.788.876l.006.112 9.523 82.107a.89.89 0 0 0 1.754-.213l-.006-.112-9.523-82.107a.89.89 0 0 0-.746-.662l-.108-.008zM22.684 142.5c-.193-.395-.65-.596-1.077-.453-.465.156-.716.662-.56 1.13h0l27.27 82.325c.193.395.65.596 1.077.453.465-.156.716-.662.56-1.13h0L22.73 142.61zm338.383 14.456l-.112.005a.89.89 0 0 0-.798.867l.005.112.322 3.32.233 2.586.543 6.654.087 1.167.134 1.855c.434 6.17.755 12.22.923 17.913.434 14.732-.206 25.45-2.18 30.238a.89.89 0 0 0 1.647.679c2.002-4.857 2.687-14.892 2.372-28.748l-.016-.685-.042-1.537c-.17-5.768-.497-11.893-.938-18.14l-.123-1.707-.087-1.17-.452-5.608-.092-1.067-.186-2.07-.185-1.976-.187-1.888a.89.89 0 0 0-.757-.79l-.11-.01zm-77.906 12.208a.89.89 0 0 0 .035 1.171l.088.083 1.135.97 1.063.942c.863.774 1.792 1.633 2.773 2.57 3.742 3.57 7.484 7.54 10.974 11.8 9.274 11.317 15.092 22.57 15.797 32.996a.89.89 0 1 0 1.777-.12c-.735-10.872-6.7-22.428-16.197-34.006a134.41 134.41 0 0 0-11.122-11.959 121.22 121.22 0 0 0-3.668-3.366l-.847-.735-.185-.157-.372-.312a.89.89 0 0 0-1.254.123zM95.606 93.98a.89.89 0 0 0-.884.779l-.007.112.008 122.508a.89.89 0 0 0 1.766-.009l.007-.112L96.49 94.75a.89.89 0 0 0-.883-.77z" fill-opacity=".25" fill="#6236ff"/><g transform="translate(39 79)"><path d="M246.895 138.914s-30.168 1.274-35.6-5.98 11.02-7.424 11.02-7.424-23.38-3.988-28.278-15.287 25.34-10.073 25.34-10.073-20.035-13.642-22.663-27.27 59.565 25.54 59.565 25.54 1.107-22.517 6.436-25.265c0 0 11.602-6.467 7.127 23.393 0 0 17.416-17.877 22.855-9.855s-18.52 22.12-18.52 22.12l-27.282 30.1z" fill="#008840"/><g class="B C D"><path d="M221.5 130.9s16.725 2.695 23-19.9m-35-1.436s32.93-4.352 55 8.436c0 0-22.175-21.935-52.876-35"/><path d="M263.674 84s-7.855 7.96 1.147 35c0 0 4.084-20.546 21.68-27.22"/></g><path d="M246.627 148s-14.417-32.807-10.43-34.952 14.11 12.57 14.11 12.57-3.067-18.1 4.908-22.54 11.962 17.022 11.962 17.022 15.03-23.31 24.54-17.022-10.736 28.366-10.736 28.366 19.325-11.038 22.085-2.452S294.48 148 294.48 148h-47.852z" fill="#fbf272"/><g class="B C D"><path d="M257.5 115.24s6.876 17.156 6.876 27.76h4.652s8.783-25.875 15.472-33m11 25s-5.577.245-12 8"/></g><path d="M22.84 154.67S-.894 132.35.565 122.71s13.998 2.92 13.998 2.92S-.02 104.594 4.94 92.322s26.83 11.98 26.83 11.98-4.666-25.712 3.79-37.984 25.373 65.156 25.373 65.156 18.082-16.07 24.206-14.024c0 0 13.707 4.09-12.54 23.082 0 0 26.83 0 24.8 10.226s-30.913 2.338-30.913 2.338L22.84 154.67z" fill="#008840"/><g class="B C D"><path d="M9.5 129s10.45 15.68 32 3.136"/><path d="M16.5 105.518s28.298 21.897 35 48.482c0 0 .362-33.6-12.648-67m38.755 40s-11.94.072-26.107 27c0 0 18.845-12.292 37-4.12"/></g><path d="M50.067 90S14.137 75.906 15.54 71.214s20.3-1.164 20.3-1.164S19.738 58.538 22.43 49.04s22.054 3.885 22.054 3.885-6.295-29.34 5.728-31.793 13.407 29.925 13.407 29.925 6.31-23.225 14.943-18.763 7.925 21.12 7.925 21.12L50.067 90z" fill="#fbf272"/><g class="B C D"><path d="M33.5 56.35S51.85 64.036 59.926 72l3.574-3.52S50.54 42.4 50.253 32M77.5 51s-3.996 4.303-2.764 15"/></g><g transform="translate(63.5)"><mask id="D" fill="#fff"><use xlink:href="#B"/></mask><path d="M79.586 144.636L3.253 133.89C1.508 133.643.2 132.15.2 130.387V4.332A3.54 3.54 0 0 1 4.622.906L79.256 19.97c.554.14 1.135.147 1.692.014L161.782.8a3.54 3.54 0 0 1 4.354 3.408l1.143 124.086a3.54 3.54 0 0 1-3.002 3.529L80.615 144.63c-.34.052-.687.055-1.028.006" fill="#fff" mask="url(#D)"/></g><g class="B"><path stroke="#d9cbc3" d="M144.177 24l-.353 116"/><g stroke="#d7cbc4"><path d="M127.78 74.803L77.15 61.788a6.2 6.2 0 0 1-4.649-6.01v-32.57c0-4.05 3.808-7.016 7.72-6l50.63 13.015a6.2 6.2 0 0 1 4.649 6.009v32.572c0 4.05-3.807 7.016-7.72 6z"/><g class="C"><path d="M71.5 78s4.07 8.35 12.524 6.075 11.855.001 19.124 4.588 11.28-1.086 17.267-.334S133.5 95 133.5 95m-62-4s4.07 8.35 12.524 6.075 11.855.002 19.124 4.6 11.28-1.085 17.267-.334S133.5 108 133.5 108m81-90s-3.555 8.056-11.1 5.8-10.542-.088-16.97 4.3-10.037-1.136-15.355-.453S159.5 34 159.5 34m55-5s-3.555 8.056-11.1 5.8-10.542-.088-16.97 4.3-10.037-1.136-15.355-.453S159.5 45 159.5 45m55-5s-3.555 8.056-11.1 5.8-10.542-.088-16.97 4.3-10.037-1.136-15.355-.453S159.5 56 159.5 56m55-6s-3.555 8.056-11.1 5.8-10.542-.088-16.97 4.3-10.037-1.136-15.355-.453S159.5 66 159.5 66m55-4s-3.555 8.056-11.1 5.8-10.542-.088-16.97 4.3-10.037-1.136-15.355-.453S159.5 78 159.5 78m55-5s-3.555 8.056-11.1 5.8-10.542-.088-16.97 4.3-10.037-1.136-15.355-.453S159.5 89 159.5 89m55-6s-3.555 8.056-11.1 5.8-10.542-.088-16.97 4.3-10.037-1.136-15.355-.453S159.5 99 159.5 99m55-4s-3.555 8.056-11.1 5.8-10.542-.088-16.97 4.3-10.037-1.136-15.355-.453S159.5 111 159.5 111m55-5s-3.555 8.056-11.1 5.8-10.542-.088-16.97 4.3-10.037-1.136-15.355-.453S159.5 122 159.5 122"/></g></g></g></g><g transform="translate(83)"><g stroke="#979797" fill="#000"><path d="M191 .25c6.558 0 12.496 2.658 16.794 6.956S214.75 17.442 214.75 24h0v244.75H.25V24c0-6.558 2.658-12.496 6.956-16.794S17.442.25 24 .25h0z" stroke-width=".5"/><path d="M190 3.588c5.913 0 11.266 2.397 15.14 6.27s6.27 9.228 6.27 15.14h0v243.412H3.588V25c0-5.913 2.397-11.266 6.27-15.14s9.228-6.27 15.14-6.27h0z" stroke-width="1.176" opacity=".205"/></g><path d="M23 29h169c7.18 0 13 5.82 13 13v227H10V42c0-7.18 5.82-13 13-13z" fill="#fff"/></g><g transform="translate(123 9)" stroke="#4a4a4a"><g fill="#000" fill-rule="nonzero"><circle cx="6.5" cy="6.5" r="6.5"/><circle cx="115.716" cy="6.5" r="3.5"/><circle cx="130.557" cy="6.5" r="3.5"/></g><rect x="26.546" y="4.5" width="74.949" height="5" rx="2.5"/></g></g></g></g></svg>
